svg/emoji_u1f695.svg

<svg enable-background="new 0 0 128 128" viewBox="0 0 128 128" xmlns="http://www.w3.org/2000/svg" xmlns:xlink="http://www.w3.org/1999/xlink"><path d="m76.16 72.01c-3.35 0-6.1-2.74-6.1-6.1v-3.81c0-3.35 2.74-6.1 6.1-6.1 3.35 0 6.1 2.74 6.1 6.1v3.81c-0.01 3.36-2.75 6.1-6.1 6.1z" fill="#FFEB3B"/><g opacity=".2"><path d="m76.16 58.01c2.26 0 4.1 1.84 4.1 4.1v3.81c0 2.26-1.84 4.1-4.1 4.1s-4.1-1.84-4.1-4.1v-3.81c0-2.26 1.84-4.1 4.1-4.1m0-2c-3.35 0-6.1 2.74-6.1 6.1v3.81c0 3.35 2.74 6.1 6.1 6.1 3.35 0 6.1-2.74 6.1-6.1v-3.81c-0.01-3.36-2.75-6.1-6.1-6.1z" fill="#424242"/></g><linearGradient id="c" x1="63.996" x2="63.996" y1="67.667" y2="115.71" gradientUnits="userSpaceOnUse"><stop stop-color="#FFEE58" offset="0"/><stop stop-color="#FFE950" offset=".3491"/><stop stop-color="#FDDB3A" offset=".8873"/><stop stop-color="#FDD835" offset="1"/></linearGradient><path d="M124,90.05v20.62c0,2.83-1.08,5.26-4,5.26l-106.85,0.29c-3.5,0-9.4-1.01-9.15-7.84 c0,0,0.25-8.95,0.41-11.38c0.46-7,4.71-9.58,15.17-10.91c13.43-1.71,14.73-5.73,18.67-8.67C47.1,70.82,52,66,75.46,66 c17.3,0,30.41,5.81,38.74,15.89c0.38,0.46,2.95,1.76,7.05,3.35C122.72,85.81,124,86.92,124,90.05z" fill="url(#c)"/><defs><path id="b" d="M124,90.05v20.62c0,2.83-1.08,5.26-4,5.26l-106.85,0.29c-3.5,0-9.4-1.01-9.15-7.84 c0,0,0.25-8.95,0.41-11.38c0.46-7,4.71-9.58,15.17-10.91c13.43-1.71,14.73-5.73,18.67-8.67C47.1,70.82,52,66,75.46,66 c17.3,0,30.41,5.81,38.74,15.89c0.38,0.46,2.95,1.76,7.05,3.35C122.72,85.81,124,86.92,124,90.05z"/></defs><clipPath id="a"><use xlink:href="#b"/></clipPath><path d="M0,101.99h9.7c4.63,0,5.81-1.31,6.76-3.69c0,0,2.28-4.3-3.47-4.3H4.3 c-0.31,0-0.63,0.03-0.93,0.08C1.74,96.02,0.3,98.53,0,101.99z" clip-path="url(#a)" fill="#FFF9C4"/><path d="m122.9 99.46h-1.27c-0.82 0-1.23-0.53-1.49-1.93l-0.73-6.47c-0.26-1.93 0.67-1.93 1.49-1.93h2c1.4 0 1.49 0.87 1.49 1.93v6.47c0 1.07 0.07 1.93-1.49 1.93z" clip-path="url(#a)" fill="#E53935"/><path d="m73.05 71.85c-15.05-0.02-30.18 7.62-34.4 15.42-0.53 0.99 0.28 2.13 1.5 2.13h33.15c0.91 0 1.65-0.66 1.65-1.48v-14.6c0-0.91-0.89-1.47-1.9-1.47z" fill="#546E7A"/><path d="m81.85 71.85c13.72 0 21.49 7.62 25.33 15.42 0.49 0.99-0.25 2.13-1.36 2.13h-24.18c-0.83 0-1.51-0.66-1.51-1.48v-11.67c0-3.13 0.16-4.4 1.72-4.4z" fill="#546E7A"/><g opacity=".2"><path d="m75.47 69c15.83 0 28.43 5.12 36.43 14.8 0.34 0.41 1.24 1.49 8.27 4.23 0.45 0.18 0.84 0.33 0.84 2.02v20.62c0 2.26-0.68 2.26-1.01 2.26l-106.84 0.29c-1.4 0-3.93-0.2-5.22-1.53-0.68-0.71-0.99-1.75-0.93-3.23 0-0.09 0.25-8.92 0.41-11.26 0.3-4.56 2.18-6.82 12.56-8.14 11.62-1.48 15.21-4.83 18.1-7.52 0.67-0.62 1.3-1.21 1.98-1.72 0.53-0.4 1.05-0.79 1.56-1.17 7.69-5.81 12.79-9.65 33.85-9.65m0-3c-23.47 0-28.37 4.82-37.22 11.42-3.94 2.94-5.23 6.96-18.67 8.67-10.45 1.33-14.7 3.91-15.16 10.91-0.16 2.43-0.42 11.38-0.42 11.38-0.25 6.83 5.65 7.84 9.15 7.84l106.85-0.29c2.92 0 4-2.42 4-5.26v-20.62c0-3.13-1.28-4.24-2.75-4.81-4.09-1.59-6.67-2.89-7.05-3.35-8.32-10.08-21.43-15.89-38.73-15.89z" fill="#424242"/></g><g fill="#6D4C41"><rect x="50.58" y="94.25" width="6.04" height="6.04"/><rect x="62.66" y="94.25" width="6.04" height="6.04"/><rect x="74.74" y="94.25" width="6.04" height="6.04"/><rect x="44.55" y="100.29" width="6.04" height="6.04"/><rect x="56.62" y="100.29" width="6.04" height="6.04"/><rect x="68.7" y="100.29" width="6.04" height="6.04"/><rect x="80.78" y="100.29" width="6.04" height="6.04"/></g><g opacity=".2"><path d="m72.95 73.85v13.55h-32.05c2.09-3.2 6.3-6.43 11.72-8.95 6.34-2.96 13.56-4.59 20.33-4.6m0.07-2c-15.04 0-30.15 7.63-34.37 15.42-0.53 0.99 0.28 2.13 1.5 2.13h33.15c0.91 0 1.65-0.66 1.65-1.48v-14.6c0-0.9-0.89-1.47-1.89-1.47h-0.04z" fill="#424242"/></g><g opacity=".2"><path d="m82.23 73.85c13.43 0.15 19.94 8.21 22.77 13.55h-22.87v-11.15c0-0.47 0-1.72 0.1-2.4m-0.38-2c-1.56 0-1.72 1.28-1.72 4.4v11.67c0 0.82 0.67 1.48 1.51 1.48h24.18c1.11 0 1.85-1.15 1.36-2.13-3.84-7.8-11.61-15.42-25.33-15.42z" fill="#424242"/></g><circle cx="31.73" cy="114.02" r="10" fill="#4E342E"/><g opacity=".2"><path d="m31.73 105.02c4.96 0 9 4.04 9 9s-4.04 9-9 9-9-4.04-9-9 4.04-9 9-9m0-1c-5.52 0-10 4.48-10 10s4.48 10 10 10 10-4.48 10-10-4.47-10-10-10z" fill="#eee"/></g><circle cx="31.73" cy="114.02" r="5.65" fill="#BDBDBD"/><circle cx="102.85" cy="114.02" r="10" fill="#4E342E"/><g opacity=".2"><path d="m102.85 105.02c4.96 0 9 4.04 9 9s-4.04 9-9 9-9-4.04-9-9 4.04-9 9-9m0-1c-5.52 0-10 4.48-10 10s4.48 10 10 10 10-4.48 10-10-4.47-10-10-10z" fill="#eee"/></g><circle cx="102.85" cy="114.02" r="5.65" fill="#BDBDBD"/></svg>

<svg width="128" height="128" style="enable-background:new 0 0 128 128;" xmlns="http://www.w3.org/2000/svg" xmlns:xlink="http://www.w3.org/1999/xlink">
  <path d="M76.16,72.01L76.16,72.01c-3.35,0-6.1-2.74-6.1-6.1v-3.81c0-3.35,2.74-6.1,6.1-6.1h0 c3.35,0,6.1,2.74,6.1,6.1v3.81C82.25,69.27,79.51,72.01,76.16,72.01z" style="fill:#FFEB3B;"/>
  <g style="opacity:0.2;">
    <path d="M76.16,58.01c2.26,0,4.1,1.84,4.1,4.1v3.81c0,2.26-1.84,4.1-4.1,4.1s-4.1-1.84-4.1-4.1v-3.81 C72.06,59.85,73.9,58.01,76.16,58.01 M76.16,56.01L76.16,56.01c-3.35,0-6.1,2.74-6.1,6.1v3.81c0,3.35,2.74,6.1,6.1,6.1h0 c3.35,0,6.1-2.74,6.1-6.1v-3.81C82.25,58.75,79.51,56.01,76.16,56.01L76.16,56.01z" style="fill:#424242;"/>
  </g>
  <linearGradient id="SVGID_1_" gradientUnits="userSpaceOnUse" x1="63.996" x2="63.996" y1="67.6667" y2="115.7083">
    <stop offset="0" style="stop-color:#FFEE58"/>
    <stop offset="0.3491" style="stop-color:#FFE950"/>
    <stop offset="0.8873" style="stop-color:#FDDB3A"/>
    <stop offset="1" style="stop-color:#FDD835"/>
  </linearGradient>
  <path d="M124,90.05v20.62c0,2.83-1.08,5.26-4,5.26l-106.85,0.29c-3.5,0-9.4-1.01-9.15-7.84 c0,0,0.25-8.95,0.41-11.38c0.46-7,4.71-9.58,15.17-10.91c13.43-1.71,14.73-5.73,18.67-8.67C47.1,70.82,52,66,75.46,66 c17.3,0,30.41,5.81,38.74,15.89c0.38,0.46,2.95,1.76,7.05,3.35C122.72,85.81,124,86.92,124,90.05z" style="fill:url(#SVGID_1_);"/>
  <g>
    <defs>
      <path id="SVGID_2_" d="M124,90.05v20.62c0,2.83-1.08,5.26-4,5.26l-106.85,0.29c-3.5,0-9.4-1.01-9.15-7.84 c0,0,0.25-8.95,0.41-11.38c0.46-7,4.71-9.58,15.17-10.91c13.43-1.71,14.73-5.73,18.67-8.67C47.1,70.82,52,66,75.46,66 c17.3,0,30.41,5.81,38.74,15.89c0.38,0.46,2.95,1.76,7.05,3.35C122.72,85.81,124,86.92,124,90.05z"/>
    </defs>
    <clipPath id="SVGID_3_">
      <use style="overflow:visible;" xlink:href="#SVGID_2_"/>
    </clipPath>
    <path d="M0,101.99h9.7c4.63,0,5.81-1.31,6.76-3.69c0,0,2.28-4.3-3.47-4.3H4.3 c-0.31,0-0.63,0.03-0.93,0.08C1.74,96.02,0.3,98.53,0,101.99z" style="clip-path:url(#SVGID_3_);fill:#FFF9C4;"/>
    <path d="M122.9,99.46h-1.27c-0.82,0-1.23-0.53-1.49-1.93l-0.73-6.47 c-0.26-1.93,0.67-1.93,1.49-1.93h2c1.4,0,1.49,0.87,1.49,1.93v6.47C124.39,98.6,124.46,99.46,122.9,99.46z" style="clip-path:url(#SVGID_3_);fill:#E53935;"/>
  </g>
  <path d="M73.05,71.85C58,71.83,42.87,79.47,38.65,87.27c-0.53,0.99,0.28,2.13,1.5,2.13h33.15 c0.91,0,1.65-0.66,1.65-1.48v-14.6C74.95,72.41,74.06,71.85,73.05,71.85z" style="fill:#546E7A;"/>
  <path d="M81.85,71.85c13.72,0,21.49,7.62,25.33,15.42c0.49,0.99-0.25,2.13-1.36,2.13l-24.18,0 c-0.83,0-1.51-0.66-1.51-1.48V76.25C80.13,73.12,80.29,71.85,81.85,71.85z" style="fill:#546E7A;"/>
  <g style="opacity:0.2;">
    <path d="M75.47,69c15.83,0,28.43,5.12,36.43,14.8c0.34,0.41,1.24,1.49,8.27,4.23 c0.45,0.18,0.84,0.33,0.84,2.02v20.62c0,2.26-0.68,2.26-1.01,2.26l-106.84,0.29c-1.4,0-3.93-0.2-5.22-1.53 c-0.68-0.71-0.99-1.75-0.93-3.23c0-0.09,0.25-8.92,0.41-11.26c0.3-4.56,2.18-6.82,12.56-8.14c11.62-1.48,15.21-4.83,18.1-7.52 c0.67-0.62,1.3-1.21,1.98-1.72c0.53-0.4,1.05-0.79,1.56-1.17C49.31,72.84,54.41,69,75.47,69 M75.47,66 C52,66,47.1,70.82,38.25,77.42c-3.94,2.94-5.23,6.96-18.67,8.67C9.13,87.42,4.88,90,4.42,97C4.26,99.43,4,108.38,4,108.38 c-0.25,6.83,5.65,7.84,9.15,7.84L120,115.93c2.92,0,4-2.42,4-5.26V90.05c0-3.13-1.28-4.24-2.75-4.81 c-4.09-1.59-6.67-2.89-7.05-3.35C105.88,71.81,92.77,66,75.47,66L75.47,66z" style="fill:#424242;"/>
  </g>
  <g>
    <g>
      <rect height="6.04" style="fill:#6D4C41;" width="6.04" x="50.58" y="94.25"/>
      <rect height="6.04" style="fill:#6D4C41;" width="6.04" x="62.66" y="94.25"/>
      <rect height="6.04" style="fill:#6D4C41;" width="6.04" x="74.74" y="94.25"/>
      <rect height="6.04" style="fill:#6D4C41;" width="6.04" x="44.55" y="100.29"/>
      <rect height="6.04" style="fill:#6D4C41;" width="6.04" x="56.62" y="100.29"/>
      <rect height="6.04" style="fill:#6D4C41;" width="6.04" x="68.7" y="100.29"/>
    </g>
    <rect height="6.04" style="fill:#6D4C41;" width="6.04" x="80.78" y="100.29"/>
  </g>
  <g style="opacity:0.2;">
    <path d="M72.95,73.85V87.4H40.9c2.09-3.2,6.3-6.43,11.72-8.95C58.96,75.49,66.18,73.86,72.95,73.85 M73.02,71.85c-15.04,0-30.15,7.63-34.37,15.42c-0.53,0.99,0.28,2.13,1.5,2.13h33.15c0.91,0,1.65-0.66,1.65-1.48v-14.6 c0-0.9-0.89-1.47-1.89-1.47C73.04,71.85,73.03,71.85,73.02,71.85L73.02,71.85z" style="fill:#424242;"/>
  </g>
  <g style="opacity:0.2;">
    <path d="M82.23,73.85C95.66,74,102.17,82.06,105,87.4l-22.87,0V76.25C82.13,75.78,82.13,74.53,82.23,73.85 M81.85,71.85c-1.56,0-1.72,1.28-1.72,4.4v11.67c0,0.82,0.67,1.48,1.51,1.48l24.18,0c1.11,0,1.85-1.15,1.36-2.13 C103.34,79.47,95.57,71.85,81.85,71.85L81.85,71.85z" style="fill:#424242;"/>
  </g>
  <g>
    <g>
      <circle cx="31.73" cy="114.02" r="10" style="fill:#4E342E;"/>
      <g style="opacity:0.2;">
        <path d="M31.73,105.02c4.96,0,9,4.04,9,9s-4.04,9-9,9s-9-4.04-9-9S26.77,105.02,31.73,105.02 M31.73,104.02c-5.52,0-10,4.48-10,10c0,5.52,4.48,10,10,10s10-4.48,10-10C41.73,108.5,37.26,104.02,31.73,104.02L31.73,104.02z" style="fill:#EEEEEE;"/>
      </g>
    </g>
    <circle cx="31.73" cy="114.02" r="5.65" style="fill:#BDBDBD;"/>
  </g>
  <g>
    <g>
      <circle cx="102.85" cy="114.02" r="10" style="fill:#4E342E;"/>
      <g style="opacity:0.2;">
        <path d="M102.85,105.02c4.96,0,9,4.04,9,9s-4.04,9-9,9s-9-4.04-9-9S97.89,105.02,102.85,105.02 M102.85,104.02c-5.52,0-10,4.48-10,10c0,5.52,4.48,10,10,10c5.52,0,10-4.48,10-10C112.85,108.5,108.38,104.02,102.85,104.02 L102.85,104.02z" style="fill:#EEEEEE;"/>
      </g>
    </g>
    <circle cx="102.85" cy="114.02" r="5.65" style="fill:#BDBDBD;"/>
  </g>
</svg>
